X:1
T:Ring the Bell Softly
T:Ring the Bell Softly
T:Tullius Clinton O’Kane, 1874
T:William Dexter Smith, Jr., 1865
T:Public Domain Courtesy of the Cyber Hymnal™
T:Public Domain Courtesy of the Cyber Hymnal™
C:Tullius Clinton O’Kane, 1874
Z:Public Domain
Z:Courtesy of the Cyber Hymnal™
%%score ( 1 2 ) 3
L:1/8
Q:1/4=115
M:3/4
K:F
V:1 treble 
V:2 treble 
V:3 bass 
V:1
 [Fc]2 [Fc]2 [Fc]2 | [Fc]3 [GB] [FA]2 | [FA]2 [FA]2 [CG]2 | [CF]4 z2 | [DF]2 [DF]2 [FB]2 | %5
w: 1.~Some- one has|gone from this|strange world of|ours,|No more to|
w: 2.~Some- one is|rest- ing from|sor- row and|sin,|Hap- py where|
w: 3.~An- gels were|anx- ious- ly|long- ing to|meet|One who walks|
 [DB]3 [_Ec] [Fd]2 | [Ec]2 [EG]2 [GB]2 | [FA]4 z2 | [Fc]2 [Fc]2 [Fc]2 | [Fc]3 [GB] [FA]2 | %10
w: ga- ther its|thorns with its|flowers;|No more to|lin- ger where|
w: earth- ly strife|en- ters not|in;|Joy- ous as|birds, when the|
w: with them on|yon gold- en|street;|Loved ones have|whis- pered that|
 [FA]2 [FA]2 [CG]2 | [CF]4 z2 | [DF]2 [DF]2 [FB]2 | [DB]3 [_Ec] [Fd]2 | [Ec]2 [EG]2 [GB]2 | %15
w: sun- beams must|fade,|Where, on all|beau- ty, death’s|fin- gers are|
w: morn- ing is|bright,|When the bright|sun- beams have|brought us their|
w: some- one is|blest,|Free from all|tri- als, and|tak- ing sweet|
 [FA]4 z2 | [FA]2 [FA]2 [GA]2 | [FA]3 [GB] [FA]2 | [Fd]2 [E^c]2 [Ec]2 | [Fd]4 z2 | %20
w: laid.|Wea- ry with|ming- ling life’s|bit- ter and|sweet,|
w: light.|Wea- ry with|sow- ing, and|nev- er to|reap,|
w: rest.|Yes, there’s an-|o- ther in|an- gel- ic|bliss,|
 [FA]2 [FA]2 [FA]2 | [FA]3 [GB] [^FA]2 | G2 [FA]2 [D=B]2 | [Ec]4 z2 | [EB]2 [FB]2 [GB]2 | %25
w: Wea- ry with|part- ing, and|ne- ver to|meet;|Some- one has|
w: Wea- ry with|la- bor, and|wel- com- ing|sleep;|Some- one’s de-|
w: One less to|cher- ish, and|one less to|kiss;|One more de-|
 [FA]3 [EG] F2 | [Fd]2 [Fd]2 [Fd]2 | [Fd]4 z2!p! ||"^Refrain" [EG]3 [EG] [EG]2 | %29
w: gone to the|bright gold- en|shore—||
w: part- ed to|Hea- ven’s bright|shore—|Ring the bell|
w: part- ed to|Heav- en’s bright|shore,||
 [EG]2 [EG] z2 [EG]2 | [F_A]4 [FA]>[FA] | [EG]4 z2 |!pp! [DF]3 [DF] [DF]2 | %33
w: ||||
w: soft- ly, there’s|crape on the|door;|Ring the bell|
w: ||||
 [DF]2"^riten." [DF] z2 [DF]2 | [DF]2 [CF]2 [CE]2 | [CF]6 |] %36
w: |||
w: soft- ly, there’s|crape on the|door.|
w: |||
V:2
 x6 | x6 | x6 | x6 | x6 | x6 | x6 | x6 | x6 | x6 | x6 | x6 | x6 | x6 | x6 | x6 | x6 | x6 | x6 | %19
 x6 | x6 | x6 | G2 x4 | x6 | x6 | x4 F2 | x6 | x6 || x6 | x7 | x6 | x6 | x6 | x7 | x6 | x6 |] %36
V:3
 [F,A,]2 [F,A,]2 [F,A,]2 | [F,A,]3 [F,D] [F,C]2 | [F,,F,C]2 [F,,F,C]2 [F,,F,B,]2 | [F,A,]4 z2 | %4
 [B,,B,]2 [B,,B,]2 [B,,D]2 | [B,,B,]3 [B,,B,] [B,,B,]2 | [C,G,]2 [C,C]2 [C,C]2 | [F,,F,C]4 z2 | %8
 [F,A,]2 [F,A,]2 [F,A,]2 | [F,A,]3 [F,D] [F,C]2 | [F,,F,C]2 [F,,F,C]2 [F,,F,B,]2 | [F,A,]4 z2 | %12
 [B,,B,]2 [B,,B,]2 [B,,D]2 | [B,,B,]3 [B,,B,] [B,,B,]2 | [C,G,]2 [C,C]2 [C,C]2 | [F,,F,C]4 z2 | %16
 [F,C]2 [F,C]2 [E,^C]2 | [D,D]3 [D,D] [D,A,]2 | [A,,A,]2 [A,,A,]2 [A,,A,]2 | [D,A,]4 z2 | %20
 [D,D]2 [D,D]2 [D,D]2 | [D,D]3 [D,D] [D,D]2 | [G,,=B,]2 [G,,C]2 [G,,G,]2 | [C,G,]4 z2 | %24
 [C,G,]2 [D,G,]2 [E,C]2 | [F,C]3 [C,C] [A,,C]2 | [B,,B,]2 [B,,B,]2 [B,,B,]2 | [B,,B,]4 z2 || %28
!p! [C,B,]3 [C,B,] [C,B,]2 | [C,B,]2 [C,B,] z2 [C,C]2 | [F,C]4 [F,C]>[F,C] | [C,C]4 z2 | %32
!pp! [D,A,]3 [D,A,] [D,A,]2 | [D,A,]2 [D,A,] z2 [D,A,]2 | [B,,B,]2 [C,A,]2 [C,G,]2 | [F,,F,A,]6 |] %36

